!!!ONB: MCCC : ILB0173_01 : Extracted Monophonic Melody
!!!COM: Beethoven, Ludwig van
!!!OPR: Piano Sonata No.12
!!!OMV: 1
!!!SCT: Op.26
!!!ODT: 1800///
**kern
*thru
*staff1
*>P210
*>Theme
*clefG2
*k[b-e-a-d-]
*A-:
*M3/8
*MM72
8e-
=1
4.e-
=2
16a-
16g
16.g
32f
16.g
32e-
=3
4a-
8b-
=4
16.dd-
32cc
8b-
32b-
32a
32b-
32cc
=5
4dd-
8cc
=6
8ff
8b-
8ee-
=7
8a-
8dd-
8cc
=8
8a
16b-
16r
16.e-
32e-
=9
16e-
16a-
16a-
16a-
16a-
16a-
=10
16a-
16g
16.g
32f
16.g
32e-
=11
4a-
8b-
=12
16.dd-
32cc
8b-
32b-
32a
32b-
32cc
=13
4dd-
8cc
=14
8ff
8b-
8ee-
=15
32a-
32g
32a-
32b-
8cc
8b-
=16
8a-
8r
8r
=17
8cc
8b-
8cc
=18
8dd-
8ff
8r
=19
8b-
8a-
8b-
=20
8cc
8ee-
8ee-[
=21
8ee-]
8dd
8ee
=22
8ff
8gg
16.aa-
32ff
=23
4ee-
8dd
=24
4ee-
16.gg
32ff
=25
4ee-
8dd
=26
8ee-
8ee-
8ee-
=27
16e-
16a-
16a-
16a-
16a-
16a-
=28
16a-
16g
16.g
32f
16.g
32e-
=29
4a-
8b-
=30
16.dd-
32cc
8b-
32b-
32a
32b-
32cc
=31
4dd-
8cc
=32
8ff
8b-
8ee-
=33
32a-
32g
32a-
32b-
8cc
8b-
=34
8a-
8r
*>VarI
*M3/8
8r
=35
4.r
=36
32G
32d-
32e-
32g
8dd-
8g
=37
32a-
32E-
32A-
32c
8e-
8e-
=38
8e-
8e-
32B-
32A
32B-
32c
=39
32d-
32d-
32f
32a-
8dd-
16cc
16r
=40
32r
32f
32a-
32b-
8ff
16ee-
16r
=41
4.r
=42
4.r
=43
4.r
=44
32G
32d-
32e-
32g
8dd-
8g
=45
32a-
32E-
32A-
32c
16e-
16e-
16e-
16e-
=46
8e-
8e-
32B-
32A
32B-
32c
=47
32d-
32d-
32f
32a-
8dd-
16cc
16r
=48
32r
32ff
32aa-
32bb-
8fff
16eee-
16r
=49
8r
8.cc
16b-
=50
8a-
8r
8r
=51
8cc
8b-
8cc
=52
8dd-
8ff
16r
32dd-
32cc
=53
8b-
8a-
8b-
=54
8cc
8ee-
16r
[16ee-
=55
32ee-]
32e-
32ee-
32e-
32r
32d
32dd
32d
32r
32e
32ee
32e
=56
32r
32f
32ff
32f
32r
32g
32gg
32g
32r
32a-
32aa-
32a-
=57
4ee-
8dd
=58
4ee-
8ff
=59
4ee-
8dd
=60
32ee-
32e-
32g
32ee-
32r
32d
32a-
32ee-
32r
32d-
32b-
32ee-
=61
4.r
=62
32G
32d-
32e-
32g
8dd-
8g
=63
32a-
32E-
32A-
32c
16e-
16e-
16e-
16e-
=64
8e-
8e-
32B-
32A-
32B-
32c
=65
32d-
32d-
32f
32a-
8dd-
16cc
16r
=66
32r
32ff
32aa-
32bb-
8fff
16eee-
16r
=67
8r
8.cc
16b-
=68
8a-
8r
*>VarTwo
32r
32e-
32r
32e-
=69
32re
32e-
32r
32e-
32r
32e-
32r
32e-
32r
32e-
32r
32e-
=70
32re
32e-
32r
32e-
32r
32e-
32r
32e-
32r
32e-
32r
32e-
=71
32re
32e-
32r
32e-
32r
32a-
32r
32a-
32r
32g
32r
32g
=72
32r
32a-
32r
32a-
32r
32g
32r
32g
32r
32a-
32r
32a-
=73
32r
32a-
32r
32a-
32r
32aa-
32r
32aa-
32r
32aa-
32r
32aa-
=74
32r
32aa-
32r
32aa-
32r
32gg
32r
32gg
32r
32aa-
32r
32aa-
=75
32r
32ddd-
32r
32ff
32r
32ff-
32r
32ee-
32r
32ee-
32r
32ee-
=76
32r
32ee-
32r
32ee-
32r
32ee-
32r
32ee-
32r
32ee-
32r
32ee-
=77
32r
32ee-
32r
32ee-
32r
32ee-
32r
32ee-
32r
32ee-
32r
32ee-
=78
32r
32ee-
32r
32ee-
32r
32ee-
32r
32ee-
32r
32ee-
32r
32ee-
=79
32r
32ee-
32r
32ee-
32r
32ee-
32r
32ee-
32r
32ee-
32r
32ee-
=80
32r
32ee-
32r
32ee-
32r
32ee-
32r
32ee-
32r
32ee-
32r
32ee-
=81
32r
32ff
32r
32ff
32r
32aa-
32r
32aa-
32r
32aa-
32r
32aa-
=82
32r
32aa-
32r
32aa-
32r
32gg
32r
32gg
32r
32aa-
32r
32aa-
=83
32rg
32ee-
32rg
32ee-
32rg
32ee-
32rg
32ee-
32rg
32g
32rg
32g
=84
32rg
32a-
32rg
32a-
8r
32rg
32ff
32rg
32ff
=85
32rg
32ff
32rdd
32fff
32rdd
32eee
32rdd
32eee
32rdd
32eee-
32rdd
32eee-
=86
32rb
32ddd-
32rb
32ddd-
32rb
32bb-
32rb
32bb-
32rb
32ff
32rb
32ff-
=87
32rb
32ee-
32rb
32eee-
32rb
32ddd
32rb
32ddd
32rb
32ddd-
32rb
32ddd-
=88
32rb
32ccc
32rb
32ccc
32rb
32aa-
32rb
32aa-
32rb
32aa-
32rb
32aa-
=89
32r
32aa-
32r
32aa-
32r
32aa-
32r
32aa-
32r
32gg
32r
32gg
=90
32rdd
32ccc
32rdd
32ccc
32rb
32ee
32rb
32ee
32rb
32ff
32rb
32ff
=91
32r
32gg
32r
32gg
32r
32gg
32r
32gg
32r
32aa-
32r
32aa-
=92
32rb
32gg
32rb
32gg
32rb
32gg
32rb
32gg
32rb
32ccc
32rb
32ccc
=93
32r
32bb-
32r
32bb-
32r
32ee-
32r
32ee-
32r
32ff
32r
32ff
=94
32r
32ee-
32r
32ee-
32r
32dd
32r
32dd
32r
32dd-
32r
32dd-
=95
32r
32cc
32r
32ee-
32r
32ee-
32r
32ee-
32r
32ee-
32r
32ee-
=96
32r
32ee-
32r
32ee-
32r
32ee-
32r
32ee-
32r
32ee-
32r
32ee-
=97
32r
32ee-
32r
32ee-
32r
32ee-
32r
32ee-
32r
32ee-
32r
32ee-
=98
32r
32ee-
32r
32ee-
32r
32ee-
32r
32ee-
32r
32ee-
32r
32ee-
=99
32r
32ff
32r
32ff
32r
32aa-
32r
32aa-
32r
32aa-
32r
32aa-
=100
32r
32aa-
32r
32aa-
32r
32gg
32r
32gg
32r
32aa-
32r
32aa-
=101
32r
32ee-
32r
32ee-
32r
32ee-
32r
32ee-
32rg
32g
32rg
32g
=102
32rg
32a-
32rg
32a-
8r
*>VarThree
*k[b-e-a-d-g-c-f-]
8r
=103
4.r
=104
4.r
=105
4.r
=106
4.r
=107
16B--
8c
8c
16c[
=108
16c]
8d-
8d-
16d-[
=109
16d-]
8d
8d
16d
=110
8d
8e-
16e-
[16e-
=111
16e-]
8a-
8a-
16a-[
=112
16a-]
8g
8g
16g
=113
16g-
8a-
8a-
16a-[
=114
16a-]
8b--
8b--
16b--[
=115
16b--]
8cc
8cc
16cc[
=116
16cc]
8dd-
8dd-
16dd[
=117
16dd]
8ee-
8ee-
16ee-
=118
8a-
8r
8b--
=119
[4.gg-
=120
8gg-]
8ff-
8f-
=121
[4.dd-
=122
8dd-]
8cc-
16cc-
[16cc-
=123
16cc-]
8b-
16b-
16aa-
16aa-[
=124
16aa-]
8gg-
16gg-
16ff
16ff[
=125
16ff]
8ee-
16ee-
16dd
16dd[
=126
16dd]
8ee-
16ee-
16ff
16ff[
=127
16ff]
8ee-
16ee-
16dd
16dd[
=128
16dd]
8ee-
8e-
16e-[
=129
16e-]
8a-
8a-
16a-[
=130
16a-]
8g
8g
16g[
=131
16g]
8a-
8a-
16a-[
=132
16a-]
8b--
8b--
16b--[
=133
16b--]
8cc
8cc
16cc[
=134
16cc]
8dd-
8dd-
16dd[
=135
16dd]
8ee-
8ee-
16ee-
=136
8a-
8r
*>VarFour
*k[b-e-a-d]
8e-[
=137
8e-]
8a-
8aa-[
=138
8aa-]
8gg
8g[
=139
8g]
8a-
8ccc[
=140
8ccc]
8bb-
8dd-[
=141
8dd-]
8cc
8fff[
=142
8fff]
8eee-
8d
=143
8d-
8c
8c-[
=144
8c-]
8B-
8e-[
=145
8e-]
8a-
[8aa-
=146
8aa-]
8gg
[8g
=147
8g]
8a-
[8ccc
=148
8ccc]
8bb-
[8dd-
=149
8dd-]
8cc
[8fff
=150
8fff]
8eee-
[8a-
=151
4a-]
8g
=152
8a-
4r
=153
8g-
8f
8eee-[
=154
8eee-]
8ddd-
8f-[
=155
8f-]
8e-
8ddd-[
=156
8ddd-]
8ccc
8c[
=157
8c]
8B
[8b-
=158
8b-]
8a
8ff[
=159
8ff]
8ee-
8d
=160
8d
8e-
[8ff
=161
8ff]
8ee-
8d
=162
8e-
8e-
[8e-
=163
8e-]
8a-
[8aa-
=164
8aa-]
8gg
[8g
=165
8g]
8a-
[8ccc
=166
8ccc]
8bb-
[8dd-
=167
8dd-]
8cc
*8va
[8fff
=168
8fff]
8eee-
*X8va
[8a-
=169
4a-]
8g
=170
8a-
8r
*>VarFive
24c
24f
24e-
=171
24c
24f
24e-
*Xtuplet
24c
24b-
24a-
24c
24b-
24a-
=172
24d-
24a-
24g
24d-
24g
24f
24d-
24g
24e-
=173
24e-
24b-
24a-
24e-
24b-
24a-
24e-
24cc
24b-
=174
24e-
24dd-
24cc
24e-
24cc
24b-
32b-
32a
32b-
32cc
=175
24a-
24ee-
24dd-
24a-
24ee-
24dd-
24a-
24dd-
24cc
=176
24a-
24gg
24ff
24g
24cc
24b-
24a-
24ff
24ee-
=177
24a-
24ee-
24dd
24f-
24ee-
24dd-
24e-
24dd-
24cc
=178
8a
8b-
32e-
32ee-
32e-
32ee-
=179
8e-
8a-
8a-
=180
32ff
32ee-
32ff
32ee-
32ff
32ee-
32ff
32ee-
32ff
32ee-
32ff
32ee-
=181
8a-
8a-
8b-
=182
32cc
32ee-
32ff
32ee-
32b-
32ee-
32ff
32ee-
32b-
32a
32b-
32cc
=183
8dd-
8dd-
8cc
=184
8ff
8b-
8ee-
=185
8a-
32cc
32ee-
32ff
32ee-
32b-
32ee-
32ff
32ee-
=186
8a-
8r
32ee
32ff
32ee
32ff
=187
16ff
8fff
8eee
[16eee-
=188
32eee-]
32ddd-
32ccc
32bb-
32aa
32bb-
32gg-
32ff
32ee-
32dd-
32cc
32b-
=189
16ee-
8eee-
8ddd
[16ddd-
=190
32ddd-]
32ccc
32bb-
32aa-
32gg
32aa-
32dd
32ee-
32b
32cc
32cc#
32dd
=191
8ee-
8dd
8ee
=192
8ff
8gg
8aa-
=193
4ee-
8dd
=194
4ee-
8ff
=195
4ee-
8dd
=196
8ee-
8dd
8dd-
=197
32cc
32ee-
32ff
32ee-
32ff
32ee-
32ff
32ee-
32ff
32ee-
32ff
32ee-
=198
32ff
32ee-
32ff
32ee-
32ff
32ee-
32ff
32ee-
32ff
32ee-
32ff
32ee-
=199
32ff
32ee-
32ff
32ee-
32ff
32ee-
32ff
32ee-
32ff
32ee-
32ff
32ee-
=200
32ff
32ee-
32ff
32ee-
32ff
32ee-
32ff
32ee-
32b-
32a
32b-
32cc
=201
8dd-
32bb-
32aa-
32bb-
32aa-
32bb-
32aa-
32bb-
32aa-
=202
32bb-
32aa-
32bb-
32aa-
32aa-
32gg
32aa-
32gg
32bb-
32aa-
32bb-
32aa-
=203
32ff
32ee-
32ff
32ee-
32ff
32ee-
32ff
32ee-
32ff
32ee-
32ff
32ee-
=204
16a-
16e-
16e-
16e-
16e-
16e-
=205
4cc
16b-
16a-
=206
8a-
8g
16.g
32a-
=207
8b-
8b-
16.b-
32cc
=208
8a-
16e-
16e-
16e-
16e-
=209
16cc
16b
16dd-
16cc
16b-
16a-
=210
16a-
16g
16g
16f#
16g
16a-
=211
16b-
16a
16b-
16a
16b-
16cc
=212
8a-
16e-
16e-
16e-
16a
=213
8b-
16e-
16e-
16e-
16cc
=214
8a-
16e-
16e-
16e-
16a
=215
8b-
16e-
16e-
16e-
16cc
=216
4.a-[
=217
8a-]
8a-
8a-
=218
[4.a-
=219
4a-]
==
*-
